X: 3100
T: Bear's, The
R: polka
M: 2/4
K: Eminor
|:Be ef|e/f/e/d/ Be/f/|ge fd|e/f/e/d/ BA|
Be ef|e/f/e/d/ Be/f/|ge fd|1 e2 e2:|2 e2 eg/a/||
b b2 e|e2 ed|Be ef|e/f/e/d/ Bg/a/|
b b2 e|e2 ed|Be ed|e2 eg/a/|
bg af|g/a/g/f/ ed|Be ef|e/f/e/d/ Bg/a/|
b b2 a|gf ed|Be ed|e2 ed||

